X:1
T:Title
%%score { ( 1 3 5 ) | ( 2 4 6 ) }
L:1/8
M:4/4
K:Bb
V:1 treble nm="Grand Piano"
V:3 treble 
V:5 treble 
V:2 bass 
V:4 bass 
V:6 bass 
V:1
 z4 z2[Q:1/4=100] [B,D]>[CE] | [DF]>[DB] [DB]>[Ec] [Fd]>[DB] [DB]>[FA] |[M:3/4] [FA]>G G>^F G2 | %3
[M:1/4] [=Ec]>[EB] |[M:4/4] A>A A>B c>c G>A |[M:3/4] B4 F2 |[M:1/4] D>[CE] | %7
[M:4/4] [DF]>[DB] [DB]>[Ec] [Fd]>[DB] [DB]>[FA] |[M:3/4] [FA]>G ^F>G [=Ec]2 |[M:1/4] [EB]>[EB] | %10
[M:35/32] A>AA>GF/ e2- e/(3:2:4d3/2-d/4c3/4-c/8 |[M:3/4] [DB]6 |[M:1/4] (3:2:2D2 E | %13
[M:4/4] z4 (5:4:5[DB]2- [DB]/ [DB]/-[DB]3/2[Dc]/ | z4 (5:4:5G2- G/ G/-G3/2G/ | %15
 z4 (5:4:5[_EG]2 [DF]/ [DB]/-[DB]3/2[Fd]/ | [Fc]6- [Fc]/4 z/4 z/ z[K:bass] | %17
 z4[K:treble] (5:4:5[DF]2 [B,D]/ [DB]/-[DB]3/2[FA]/ |[M:9/8] z3 z c2- c-c/4 z/4 z/ z | %19
[M:35/32] z35/4 |[M:3/4] B6 |] %21
V:2
 z4 z2 [B,,F,]>[B,,F,] | [B,,B,]>[B,,B,] [B,,B,]>[B,,B,] [B,,B,]>[B,,B,] [B,,B,]>[B,,B,] | %2
[M:3/4] [E,B,]>[E,B,E] [E,B,E]>[E,A,E] [E,B,E]2 |[M:1/4] [C,C]>[C,C] | %4
[M:4/4] [F,CE]>[F,CE] [F,CE]>[F,B,D] [F,A,E]>[F,A,E] [F,B,E]>[F,CE] |[M:3/4] [B,,B,]6 | %6
[M:1/4] [B,,F,B,]>[B,,F,] | %7
[M:4/4] [B,,B,]>[B,,B,] [B,,B,]>[B,,B,] [B,,B,]>[B,,B,] [B,,B,]>[B,,B,] | %8
[M:3/4] [E,B,]>[E,B,E] [E,A,E]>[E,B,E] [C,B,]2 |[M:1/4] [C,G,]>[C,C] | %10
[M:35/32] [F,CF]>[F,CF][F,CE]>[F,B,E][F,A,]/ [F,CF]2- [F,CF]/(3:2:4[F,B,F]3/2-[F,B,F]/4[F,E]3/4-[F,E]/8 | %11
[M:3/4] [B,,F,]6 |[M:1/4] (3:2:2B,2 C |[M:4/4] (3:2:2[B,,B,]3 [B,,B,]3 z4 | %14
 z4 (5:4:5[E,B,E]2- [E,B,E]/ [E,B,E]/-[E,B,E]3/2E/ | %15
 (5:4:5[B,,B,]2 [B,,B,]/ [B,,B,]/-[B,,B,]3/2[B,,B,]/ [B,,B,]2 [B,,B,]2 | (3:2:2[F,A,]3 F,3 z4 | %17
 z4 (5:4:5[B,,B,]2 [B,,F,]/ [B,,F,]/-[B,,F,]3/2[B,,B,]/ | %18
[M:9/8] z3 z/ B,/ B,2- B,-B,/4 z/4 z/ z/ C/ | %19
[M:35/32] z2 [F,CE]3/2-[F,CE]/4 z2 z3/4 [B,F]3/2-[B,F]/4 z/ |[M:3/4] F,2 z2 z2 |] %21
V:3
 x8 | x8 |[M:3/4] x6 |[M:1/4] x2 |[M:4/4] x8 |[M:3/4] D6 |[M:1/4] x2 |[M:4/4] x8 |[M:3/4] x6 | %9
[M:1/4] x2 |[M:35/32] x35/4 |[M:3/4] x6 |[M:1/4] x2 |[M:4/4] [DF]4- [DF]/4 z/4 z/ z z2 | %14
 [EB]4- [EB]/4 z/4 z/ z z2 | (5:4:5[DF]2 [DF]/ [_D=E]/-[DE]3/2[=DF]/ z4 | %16
 z4 (5:4:5A,2- A,/ [F,B,D]/-[F,B,D]3/2[K:bass][F,CE]/ | %17
 (5:4:5[F,DF]2[K:treble] [F,DF]/ [DF]/-[DF]3/2[EG]/ z4 | %18
[M:9/8] z3 z/ G/-G/4 z/4 z/ z z z z/ [=EB]/- | %19
[M:35/32] [EB]/4 z3/2 z/4 A3/2-A/4 z2 z3/4 d3/2-d/4 z/ |[M:3/4] D2 E>E D2 |] %21
V:4
 x8 | x8 |[M:3/4] x6 |[M:1/4] x2 |[M:4/4] x8 |[M:3/4] x6 |[M:1/4] x2 |[M:4/4] x8 |[M:3/4] x6 | %9
[M:1/4] x2 |[M:35/32] x35/4 |[M:3/4] x6 |[M:1/4] x2 |[M:4/4] z4 (3:2:2[B,,B,]3 [B,,_A,]3 | %14
 (3:2:2[E,G,]3 E,3 z4 | x8 | z4 (7:8:6F,3/4E,/4-E,3/4 D,/4-D,C,/ | %17
 (5:4:5B,,2 B,,/ [B,,B,]/-[B,,B,]3/2[B,,B,]/ z4 | %18
[M:9/8] (4:3:4[E,B,]2 [E,B,E]/[E,A,E]/-[E,A,E]- [E,A,-E]/[E,-A,E-]/4[E,E]/4-[C,-E,E]/<C,/-C,- C,C,>C,- | %19
[M:35/32] [C,F,-C-F-]/4[F,CF]-[F,CF]/<[F,CF]/ z z/4 (3:2:8[F,B,E]3/4-[F,B,E]/8[F,A,]3/8-[F,A,]/16 z3/8 z/16 [F,CF]3/4-[F,CF]/8-[F,CF]-[F,C-F]/<[F,-C]/F,3/4[F,E]3/4 | %20
[M:3/4] B,,2- [B,,-G,]>[B,,-G,] [B,,F,]2 |] %21
V:5
 x8 | x8 |[M:3/4] x6 |[M:1/4] x2 |[M:4/4] x8 |[M:3/4] x6 |[M:1/4] x2 |[M:4/4] x8 |[M:3/4] x6 | %9
[M:1/4] x2 |[M:35/32] x35/4 |[M:3/4] x6 |[M:1/4] x2 |[M:4/4] x8 | z2 G,2- G,/4 z/4 z/ z z2 | x8 | %16
 z2 A,2- A,/4 z/4 z/ z z2[K:bass] | x8/5[K:treble] x32/5 | %18
[M:9/8] (4:3:4[FA]2 G/^F/-F- F3/4 z/4 =E2- E [EB]2 | %19
[M:35/32] A3/2A3/4 z z/4 (3:2:8G3/4-G/8F3/8-F/16 z3/8 z/16 e3/4-e/8- e2 z3/4 c3/4 |[M:3/4] x6 |] %21
V:6
 x8 | x8 |[M:3/4] x6 |[M:1/4] x2 |[M:4/4] x8 |[M:3/4] x6 |[M:1/4] x2 |[M:4/4] x8 |[M:3/4] x6 | %9
[M:1/4] x2 |[M:35/32] x35/4 |[M:3/4] x6 |[M:1/4] x2 |[M:4/4] x8 | x8 | x8 | x8 | x8 | %18
[M:9/8] z3 z3 z G,3/2-G,/4 z/4 |[M:35/32] x35/4 |[M:3/4] x6 |] %21

